X:1
T:Du går, du Guds lamm, du milda
T:August Söderman (1832-1876)
T:Du går, Guds lamm, du milda
T:©PA Aglert Edition may be freely distributed, duplicated, performed and recorded
T:©PA Aglert Edition may be freely distributed, duplicated, performed and recorded
T:©PA Aglert Edition may be freely distributed, duplicated, performed and recorded
T:©PA Aglert Edition may be freely distributed, duplicated, performed and recorded
C:August Söderman (1832-1876)
Z:©PA Aglert
Z:Edition may be freely distributed, duplicated, performed and recorded
%%score [ 1 2 3 4 ]
L:1/8
Q:1/4=84
M:4/4
K:F
V:1 treble nm="S"
V:2 treble nm="A"
V:3 treble-8 nm="T"
V:4 bass nm="B"
V:1
"^Andantino" z2 | z4 z2!p! d2 | c2 B2 A2 G2 | (F2 E2) A2 G2 | F2 G2 A2!<(! d2!<)! | %5
w: |Du|går, Guds lamm, du|mil- * da, o-|skyl- di- ga och|
 (d2 ^c2) d2 A2 | (A2 G2)!>(! F2!>)! A2 |!<(! d2!<)! c2 =B2 B2 |!>(! A4!>)! A2 z2 | z4 z2!mf! d2 | %10
w: re- * na, du|re- * na, att|oss från Gu- di|skil- da,|med|
!<(! d2 e2!<)! f2 f2 |!f! e2 d2 c2 =B2 |"^dim." (A2 ^G2) A2 A2 | =B2 ^c2 d2 e2 | A4 A2 A2 | %15
w: Gud i- gen, med|Gud i- gen för-|e- * na. Ditt|hjär- ta bär vår|sve- da! Ditt|
 A2 =B2!<(! c2!<)! d2 | G4 G2 G2 | G2 A2!<(! !courtesy!_B2!<)! c2 | F4 F2!ff! F2 | d3 d c2 B2 | %20
w: hjär- ta bär vår|sve- da, att|vå- ra hjär- tan|fre- da. Pris|va- re dig, o|
 (A2 G2) F2 F2 | F4-"^dim." F2 E2 | F2 z2 z4 | z4 z2!p! d2 | c2 B2 A2 G2 | (F2 E2) A2 G2 | %26
w: Je- * su! Pris|va- * re|dig!|Du|går, Guds lamm, du|mil- * da, o-|
 F2 G2!<(! A2!<)! d2 | (d2 ^c2) d2 A2 | (A2 ^G2) A2!>(! =G2 | F2!>)! E2 D2 ^C2 | D2 D2 z2!mf! d2 | %31
w: skyl- di- ga och|re- * na, du|re- * na. Ditt|hjär- ta bär vår|sve- da. Pris|
 c2 B2 A2 G2 | d4 d2 c2 | B2 A2 G2 G2 | ^F4!<(! B4!<)! |"^rall." (A4!>(! ^F2 E2)!>)! | %36
w: va- re dig, o|Je- su, Pris|va- re dig, o|Je- su!|A- * *|
 !fermata!D8 |] %37
w: men!|
V:2
!p! A2 |"^sost." G2 F2 E2 D2 | D4 D2 D2 | D2 ^C2 F2 E2 | D4 D2 D2 | E2 E2 D2 D2 | ^C4 D2 F2 | %7
w: Du|går, Guds lamm, du|mil- da, o-|skyl- di- ga och|re- na, att|oss från Gu- di|skil- da, att|
 F2 E2 F2 (ED) | (C2 F2) E2 z2 | z2!mf! A2 A2 G2 |!<(! G2 G2!<)! F2 F2 |!f! F6 F2 | %12
w: oss från Gu- di _|skil- * da,|med Gud i-|gen, med Gud i-|gen för-|
"^dim." E4 E2 z2 | z4 z2 A2 | G2 F2 E2 D2 | D2 D2 z2 G2 | F2 E2 D2 C2 | C2 C2 z2 _E2 | %18
w: e- na.|Ditt|hjär- ta bär vår|sve- da! Ditt|hjär- ta bär vår|sve- da att|
 _E4 D2!ff! F2 | D3 D _E2 D2 | (D2 D2) D2 C2 | =B,4"^dim." _B,4 | A,2 z2 z2!p! A2 | G2 F2 E2 D2 | %24
w: fre- da. Pris|va- re dig, o|Je- * su! Pris|va- re|dig! Du|går, Guds lamm, du|
 D4 D2 D2 | D2 ^C2 F2 E2 | D4 D2 D2 | E2 E2 D2 D2 | D4 ^C2 E2 | D2 C2 B,2 B,2 | B,2 B,2 z4 | %31
w: mil- da, o-|skyl- di- ga och|re- na, o-|skyl- di- ga och|re- na. Ditt|hjär- ta bär vår|sve- da.|
 z4 z2!mf! G2 | ^F2 E2 D2 _E2 | D4 D2 !courtesy!=E2 | D4!<(! D4!<)! | ^C8 |!>(! !fermata!D8!>)! |] %37
w: Pris|va- re dig, o|Je- su, o|Je- su!|A-|men!|
V:3
 z2 | z8 | z2!p! d2 c2 B2 | (A4 A2) A2 | A2 A2 A2 A2 | B4 A2 A2 | A4 A2 A2 | A2 A2 A2 ^G2 | %8
w: ||Du går, Guds|lamm, _ o-|skyl- di- ga och|re- na, du|re- na, att|oss från Gu- di|
 (A2 d2) c2!mf! f2 | e2 e2 d2 d2 |!<(! (d2 ^c2)!<)! d2 A2 |!f! A2 =B2 !courtesy!=c2 d2 | %12
w: skil- * da, med|Gud i- gen för-|e- * na, med|Gud i- gen för-|
"^dim." (c2 =B2) c2 z2 | z2 A2 =B2 ^c2 | d2 d2 z4 | z2 G2 A2 =B2 | c2 c2 z4 | z2 F2 G2 A2 | %18
w: e- * na.|Du bär vår|sve- da!|Du bär vår|sve- da|att hjär- tan|
 B4 B2!ff! F2 | F3 F ^F2 G2 | (A2 B2) A2 A2 | (_A2 G2)"^dim." G4 | F2!p! A2 A2 A2 | A4- A2 z2 | %24
w: fre- da. Pris|va- re dig, o|Je- * su! Pris|va- * re|dig! Du går, Guds|lamm, _|
 z2 d2 c2 B2 | A4- A2 A2 | A2 A2 A2 A2 | B4 A2 A2 | =B4 A2 A2 | A2 G2 F2 E2 | F2 F2 z4 | %31
w: Du går, Guds|lamm, _ o-|skyl- di- ga och|re- na, du|re- na. Ditt|hjär- ta bär vår|sve- da.|
 z2!mf! d2 c2 B2 | A2 G2 ^^F2 ^F2 | (G2 A2 B2) B2 | A4!<(! G4!<)! | (G2 ^F2!>(! A2 G2)!>)! | %36
w: Pris va- re|dig, pris va- re|dig, _ _ o|Je- su!|A- * * *|
 !fermata!^F8 |] %37
w: men!|
V:4
 z2 | z2!p! A,2 G,2 F,2 | G,6 G,2 | A,2 A,2 A,,2 ^C,2 | (D,3 E,) F,2 F,2 | G,2 G,2 F,2 F,2 | %6
w: |Du går, Guds|lamm, o-|skyl- di- ga och|re- * na, att|oss från Gu- di|
 E,4 D,2 !courtesy!=C,2 | =B,,2 C,2 D,2 E,2 | A,4 A,2!mf! D2 | D2 C2 C2 B,2 |!<(! A,4!<)! D,2 D,2 | %11
w: skil- da, att|oss från Gu- di|skil- da, med|Gud i- gen för-|e- na, med|
!f! D,6 D,2 |"^dim." E,4 A,2 z2 | z8 | z2 A,2 G,2 F,2 | G,2 G,2 z4 | z2 G,2 F,2 E,2 | F,2 F,2 z4 | %18
w: Gud för-|e- na.||Du bär vår|sve- da,|att hjär- tan|fre- da.|
 z4 z2!ff! F,2 | B,,3 B,, B,,2 B,,2 | (B,,2 B,,2) =B,,2 C,2 | (D,4"^dim." _D,2) C,2 | F,,2 z2 z4 | %23
w: Pris|va- re dig, o|Je- * su! Pris|va- * re|dig!|
 z2!p! A,2 G,2 F,2 | G,4- G,2 G,2 | A,2 A,2 A,,2 ^C,2 | (D,3 E,) F,2 F,2 | G,2 G,2 F,2 F,2 | %28
w: Du går, Guds|lamm, _ du|går Guds lamm, du|mil- * da, o-|skyl- di- ga och|
 E,4 A,,2 ^C,2 | D,2 G,,2 A,,2 A,,2 | D,2 D,2!mf! D,4 | D,8 | D,8 | D,6 ^C,2 | D,4!<(! G,,4!<)! | %35
w: re- na. Ditt|hjär- ta bär vår|sve- da. Pris|va-|re|dig! O|Je- su!|
 A,,8 |!>(! !fermata!D,8!>)! |] %37
w: A-|men!|

